img/in.svg

<svg width="15" height="15" viewBox="0 0 15 15" fill="none" xmlns="http://www.w3.org/2000/svg">
<path d="M13.3333 0.737549H1.302C0.770752 0.737549 0.333252 1.2063 0.333252 1.7688V13.7375C0.333252 14.3 0.770752 14.7375 1.302 14.7375H13.3333C13.8645 14.7375 14.3333 14.3 14.3333 13.7375V1.7688C14.3333 1.2063 13.8645 0.737549 13.3333 0.737549ZM4.552 12.7375H2.4895V6.0813H4.552V12.7375ZM3.52075 5.1438C2.83325 5.1438 2.302 4.61255 2.302 3.9563C2.302 3.30005 2.83325 2.73755 3.52075 2.73755C4.177 2.73755 4.70825 3.30005 4.70825 3.9563C4.70825 4.61255 4.177 5.1438 3.52075 5.1438ZM12.3333 12.7375H10.2395V9.48755C10.2395 8.73755 10.2395 7.73755 9.177 7.73755C8.08325 7.73755 7.927 8.5813 7.927 9.4563V12.7375H5.8645V6.0813H7.83325V6.98755H7.8645C8.14575 6.4563 8.83325 5.8938 9.83325 5.8938C11.927 5.8938 12.3333 7.30005 12.3333 9.0813V12.7375Z" fill="#5A7184"/>
</svg>

<svg width="15" height="15" fill="none" xmlns="http://www.w3.org/2000/svg"><path d="M13.333.738H1.302c-.531 0-.969.468-.969 1.03v11.97c0 .562.438 1 .969 1h12.031c.531 0 1-.438 1-1V1.768c0-.562-.469-1.03-1-1.03zm-8.781 12H2.49V6.08h2.062v6.657zM3.521 5.144c-.688 0-1.219-.531-1.219-1.188a1.22 1.22 0 011.219-1.218c.656 0 1.187.562 1.187 1.218 0 .657-.531 1.188-1.187 1.188zm8.812 7.594H10.24v-3.25c0-.75 0-1.75-1.062-1.75-1.094 0-1.25.843-1.25 1.718v3.282H5.864V6.08h1.97v.907h.03c.282-.532.97-1.094 1.97-1.094 2.093 0 2.5 1.406 2.5 3.187v3.657z" fill="#5A7184"/></svg>
